X:90
C:Page 44
T:Off she goes. MBe.90
S:Matthew Betham MS, Towcett Cumbria, 1815
O:England;Cumbria;Towcett
Z:VMP – Hugh Taylor, 2012
M:6/8
L:1/8
Q:3/8=100
R:.Jig
N:The last 3 bars of the B music are on the next page – ie page 45
N:Someone has added, in another (modern) hand, something like “to Merrimashee”
N:-which is an entirely different tune.
K:D
F2 A G2 B|ABc d3|F2 A G2 B|AFD E3|
F2 A G2 B|ABc d3|def agf|edc d3:|
|:faf d2 f|eae c2 e|faf d2 f|ecA A3|
faf d2 f|eae c2 e|faf gec|d3 d3:|

